nexa-remotion/kit/public/fx/warm-film.cube
TITLE "nexa warm film"
LUT_3D_SIZE 9
DOMAIN_MIN 0 0 0
DOMAIN_MAX 1 1 1
0.05638 0.05130 0.03946
0.14346 0.05306 0.04068
0.24900 0.05527 0.04207
0.36692 0.05780 0.04353
0.49108 0.06053 0.04502
0.61536 0.06332 0.04646
0.73360 0.06601 0.04779
0.83964 0.06847 0.04896
0.92732 0.07052 0.04991
0.06406 0.14236 0.04332
0.15146 0.14427 0.04438
0.25730 0.14662 0.04562
0.37549 0.14929 0.04698
0.49990 0.15214 0.04836
0.62440 0.15505 0.04972
0.74284 0.15785 0.05099
0.84904 0.16040 0.05211
0.93685 0.16253 0.05303
0.07446 0.25308 0.04748
0.16208 0.25510 0.04845
0.26816 0.25758 0.04961
0.38659 0.26038 0.05088
0.51123 0.26337 0.05220
0.63595 0.26640 0.05349
0.75459 0.26932 0.05471
0.86096 0.27196 0.05579
0.94890 0.27417 0.05668
0.08698 0.37711 0.05179
0.17478 0.37923 0.05271
0.28106 0.38183 0.05381
0.39971 0.38475 0.05503
0.52458 0.38787 0.05629
0.64951 0.39103 0.05754
0.76833 0.39406 0.05872
0.87487 0.39680 0.05978
0.96294 0.39909 0.06064
0.10097 0.50804 0.05611
0.18892 0.51026 0.05699
0.29539 0.51296 0.05806
0.41424 0.51601 0.05924
0.53931 0.51925 0.06047
0.66443 0.52252 0.06169
0.78343 0.52567 0.06285
0.89012 0.52851 0.06388
0.97832 0.53088 0.06474
0.11567 0.63941 0.06029
0.20376 0.64170 0.06115
0.31039 0.64451 0.06220
0.42941 0.64767 0.06335
0.55465 0.65102 0.06456
0.67995 0.65441 0.06577
0.79911 0.65766 0.06692
0.90595 0.66060 0.06795
0.99426 0.66304 0.06879
0.13022 0.76466 0.06419
0.21843 0.76703 0.06504
0.32520 0.76993 0.06607
0.44437 0.77319 0.06722
0.56977 0.77664 0.06842
0.69522 0.78013 0.06962
0.81452 0.78348 0.07077
0.92148 0.78650 0.07179
1.00000 0.78902 0.07264
0.14371 0.87720 0.06765
0.23201 0.87964 0.06850
0.33890 0.88261 0.06952
0.45819 0.88596 0.07067
0.58372 0.88951 0.07187
0.70930 0.89308 0.07307
0.82872 0.89651 0.07422
0.93578 0.89961 0.07524
1.00000 0.90218 0.07610
0.15514 0.97040 0.07050
0.24352 0.97289 0.07135
0.35050 0.97593 0.07237
0.46989 0.97934 0.07352
0.59552 0.98296 0.07472
0.72120 0.98661 0.07593
0.84071 0.99010 0.07708
0.94786 0.99326 0.07811
1.00000 0.99588 0.07897
0.05709 0.05189 0.12482
0.14422 0.05368 0.12601
0.24981 0.05590 0.12737
0.36775 0.05845 0.12882
0.49195 0.06119 0.13030
0.61625 0.06399 0.13172
0.73451 0.06670 0.13305
0.84057 0.06916 0.13421
0.92827 0.07123 0.13516
0.06489 0.14300 0.12862
0.15231 0.14492 0.12966
0.25818 0.14728 0.13090
0.37639 0.14997 0.13224
0.50082 0.15283 0.13362
0.62534 0.15575 0.13497
0.74379 0.15856 0.13624
0.85002 0.16112 0.13735
0.93784 0.16325 0.13827
0.07537 0.25377 0.13274
0.16300 0.25579 0.13371
0.26909 0.25828 0.13486
0.38754 0.26109 0.13613
0.51221 0.26409 0.13744
0.63694 0.26713 0.13873
0.75559 0.27005 0.13995
0.86198 0.27271 0.14102
0.94993 0.27492 0.14191
0.08795 0.37783 0.13704
0.17576 0.37996 0.13795
0.28206 0.38256 0.13905
0.40072 0.38550 0.14026
0.52560 0.38862 0.14152
0.65055 0.39178 0.14277
0.76938 0.39483 0.14395
0.87594 0.39758 0.14500
0.96402 0.39987 0.14587
0.10199 0.50879 0.14134
0.18995 0.51101 0.14222
0.29644 0.51372 0.14329
0.41530 0.51678 0.14446
0.54038 0.52003 0.14569
0.66551 0.52331 0.14691
0.78452 0.52647 0.14807
0.89123 0.52932 0.14910
0.97943 0.53169 0.14996
0.11674 0.64018 0.14552
0.20483 0.64249 0.14638
0.31148 0.64530 0.14742
0.43051 0.64847 0.14857
0.55577 0.65183 0.14978
0.68107 0.65523 0.15099
0.80025 0.65848 0.15214
0.90709 0.66143 0.15316
0.99541 0.66388 0.15401
0.13133 0.76546 0.14941
0.21955 0.76784 0.15026
0.32633 0.77074 0.15129
0.44551 0.77401 0.15244
0.57092 0.77748 0.15364
0.69638 0.78097 0.15484
0.81569 0.78433 0.15598
0.92266 0.78736 0.15701
1.00000 0.78988 0.15786
0.14485 0.87803 0.15287
0.23316 0.88047 0.15372
0.34005 0.88345 0.15474
0.45936 0.88680 0.15588
0.58490 0.89036 0.15709
0.71049 0.89394 0.15829
0.82992 0.89738 0.15944
0.93699 0.90048 0.16046
1.00000 0.90306 0.16131
0.15631 0.97125 0.15572
0.24469 0.97374 0.15656
0.35168 0.97678 0.15759
0.47109 0.98020 0.15873
0.59673 0.98383 0.15994
0.72241 0.98748 0.16115
0.84194 0.99099 0.16230
0.94909 0.99415 0.16333
1.00000 0.99678 0.16419
0.05797 0.05262 0.22810
0.14516 0.05442 0.22926
0.25079 0.05667 0.23060
0.36878 0.05924 0.23203
0.49300 0.06199 0.23349
0.61733 0.06481 0.23491
0.73562 0.06753 0.23622
0.84170 0.07001 0.23738
0.92941 0.07208 0.23832
0.06591 0.14379 0.23183
0.15335 0.14572 0.23286
0.25925 0.14810 0.23409
0.37748 0.15079 0.23542
0.50194 0.15367 0.23679
0.62648 0.15660 0.23814
0.74496 0.15943 0.23939
0.85120 0.16199 0.24051
0.93903 0.16414 0.24142
0.07647 0.25460 0.23592
0.16412 0.25663 0.23688
0.27024 0.25913 0.23802
0.38870 0.26195 0.23928
0.51339 0.26496 0.24059
0.63815 0.26801 0.24188
0.75681 0.27095 0.24309
0.86322 0.27362 0.24416
0.95118 0.27584 0.24505
0.08913 0.37870 0.24019
0.17695 0.38084 0.24110
0.28327 0.38345 0.24219
0.40195 0.38640 0.24340
0.52685 0.38953 0.24466
0.65181 0.39271 0.24591
0.77066 0.39576 0.24708
0.87723 0.39852 0.24813
0.96532 0.40082 0.24900
0.10323 0.50970 0.24448
0.19121 0.51193 0.24536
0.29771 0.51465 0.24642
0.41658 0.51772 0.24759
0.54168 0.52098 0.24882
0.66683 0.52427 0.25004
0.78585 0.52743 0.25120
0.89257 0.53029 0.25223
0.98079 0.53267 0.25308
0.11803 0.64113 0.24865
0.20614 0.64344 0.24951
0.31280 0.64626 0.25054
0.43185 0.64944 0.25170
0.55712 0.65281 0.25291
0.68244 0.65621 0.25412
0.80162 0.65948 0.25526
0.90848 0.66243 0.25629
0.99681 0.66489 0.25713
0.13268 0.76644 0.25254
0.22090 0.76882 0.25339
0.32770 0.77173 0.25441
0.44689 0.77501 0.25556
0.57232 0.77848 0.25676
0.69779 0.78199 0.25797
0.81711 0.78535 0.25911
0.92409 0.78839 0.26013
1.00000 0.79092 0.26098
0.14623 0.87903 0.25599
0.23455 0.88148 0.25684
0.34146 0.88447 0.25786
0.46078 0.88783 0.25901
0.58634 0.89139 0.26021
0.71193 0.89499 0.26141
0.83137 0.89843 0.26256
0.93846 0.90154 0.26359
1.00000 0.90413 0.26444
0.15773 0.97227 0.25884
0.24612 0.97477 0.25969
0.35312 0.97782 0.26071
0.47254 0.98125 0.26186
0.59819 0.98488 0.26306
0.72388 0.98855 0.26427
0.84342 0.99206 0.26543
0.95058 0.99523 0.26646
1.00000 0.99786 0.26732
0.05899 0.05344 0.34331
0.14623 0.05527 0.34444
0.25190 0.05753 0.34576
0.36993 0.06012 0.34718
0.49419 0.06290 0.34862
0.61855 0.06573 0.35003
0.73687 0.06847 0.35133
0.84297 0.07096 0.35248
0.93070 0.07304 0.35342
0.06705 0.14467 0.34698
0.15452 0.14662 0.34800
0.26045 0.14901 0.34921
0.37871 0.15172 0.35054
0.50320 0.15461 0.35190
0.62777 0.15756 0.35324
0.74627 0.16040 0.35449
0.85253 0.16297 0.35560
0.94037 0.16513 0.35650
0.07771 0.25553 0.35103
0.16538 0.25758 0.35199
0.27152 0.26008 0.35313
0.39001 0.26292 0.35438
0.51472 0.26594 0.35568
0.63950 0.26901 0.35696
0.75818 0.27196 0.35817
0.86461 0.27463 0.35924
0.95258 0.27686 0.36012
0.09045 0.37968 0.35528
0.17829 0.38182 0.35619
0.28462 0.38445 0.35728
0.40332 0.38740 0.35848
0.52824 0.39055 0.35974
0.65322 0.39374 0.36098
0.77209 0.39680 0.36215
0.87867 0.39957 0.36320
0.96678 0.40188 0.36406
0.10463 0.51072 0.35956
0.19261 0.51296 0.36044
0.29913 0.51569 0.36149
0.41802 0.51876 0.36266
0.54313 0.52203 0.36389
0.66830 0.52534 0.36511
0.78734 0.52851 0.36626
0.89407 0.53138 0.36729
0.98230 0.53377 0.36814
0.11949 0.64219 0.36371
0.20761 0.64451 0.36457
0.31428 0.64734 0.36561
0.43334 0.65052 0.36676
0.55863 0.65390 0.36797
0.68397 0.65732 0.36918
0.80317 0.66060 0.37032
0.91004 0.66356 0.37135
0.99837 0.66602 0.37219
0.13418 0.76753 0.36760
0.22242 0.76992 0.36845
0.32923 0.77284 0.36948
0.44844 0.77613 0.37062
0.57388 0.77961 0.37182
0.69936 0.78313 0.37303
0.81870 0.78650 0.37417
0.92569 0.78955 0.37519
1.00000 0.79208 0.37604
0.14779 0.88015 0.37105
0.23612 0.88261 0.37190
0.34304 0.88561 0.37292
0.46237 0.88898 0.37407
0.58794 0.89255 0.37527
0.71355 0.89615 0.37648
0.83300 0.89961 0.37762
0.94010 0.90272 0.37865
1.00000 0.90532 0.37950
0.15931 0.97342 0.37390
0.24772 0.97593 0.37475
0.35472 0.97898 0.37577
0.47416 0.98242 0.37692
0.59982 0.98606 0.37813
0.72553 0.98974 0.37934
0.84508 0.99326 0.38049
0.95225 0.99643 0.38153
1.00000 0.99907 0.38238
0.06009 0.05432 0.46448
0.14737 0.05616 0.46560
0.25309 0.05845 0.46689
0.37115 0.06106 0.46830
0.49545 0.06385 0.46973
0.61984 0.06670 0.47112
0.73819 0.06945 0.47242
0.84432 0.07196 0.47356
0.93206 0.07405 0.47449
0.06827 0.14561 0.46809
0.15577 0.14756 0.46911
0.26172 0.14997 0.47031
0.38001 0.15269 0.47163
0.50453 0.15561 0.47298
0.62913 0.15857 0.47431
0.74765 0.16142 0.47555
0.85393 0.16401 0.47666
0.94179 0.16617 0.47756
0.07903 0.25651 0.47212
0.16671 0.25857 0.47306
0.27287 0.26109 0.47420
0.39139 0.26394 0.47544
0.51612 0.26698 0.47674
0.64092 0.27006 0.47802
0.75963 0.27302 0.47922
0.86607 0.27570 0.48029
0.95406 0.27794 0.48116
0.09185 0.38071 0.47634
0.17970 0.38287 0.47725
0.28605 0.38550 0.47833
0.40478 0.38847 0.47953
0.52972 0.39163 0.48078
0.65472 0.39483 0.48202
0.77361 0.39790 0.48319
0.88020 0.40069 0.48424
0.96832 0.40300 0.48510
0.10610 0.51180 0.48060
0.19410 0.51404 0.48148
0.30063 0.51678 0.48253
0.41954 0.51987 0.48370
0.54467 0.52315 0.48492
0.66986 0.52647 0.48614
0.78892 0.52965 0.48729
0.89566 0.53253 0.48833
0.98390 0.53493 0.48918
0.12102 0.64330 0.48475
0.20916 0.64563 0.48561
0.31584 0.64847 0.48664
0.43492 0.65167 0.48779
0.56023 0.65506 0.48900
0.68558 0.65849 0.49021
0.80479 0.66177 0.49135
0.91168 0.66474 0.49238
1.00000 0.66722 0.49322
0.13578 0.76868 0.48863
0.22402 0.77108 0.48948
0.33084 0.77401 0.49051
0.45007 0.77731 0.49165
0.57552 0.78080 0.49285
0.70102 0.78433 0.49406
0.82038 0.78771 0.49520
0.92738 0.79077 0.49622
1.00000 0.79331 0.49707
0.14942 0.88134 0.49208
0.23776 0.88380 0.49293
0.34470 0.88681 0.49395
0.46405 0.89019 0.49510
0.58963 0.89377 0.49630
0.71525 0.89738 0.49751
0.83472 0.90085 0.49865
0.94183 0.90397 0.49968
1.00000 0.90657 0.50054
0.16098 0.97462 0.49493
0.24940 0.97714 0.49578
0.35642 0.98021 0.49680
0.47586 0.98365 0.49795
0.60155 0.98731 0.49916
0.72727 0.99099 0.50037
0.84683 0.99452 0.50152
0.95401 0.99770 0.50256
1.00000 1.00000 0.50342
0.06121 0.05520 0.58565
0.14853 0.05707 0.58674
0.25429 0.05938 0.58802
0.37239 0.06200 0.58941
0.49672 0.06481 0.59082
0.62114 0.06768 0.59221
0.73952 0.07045 0.59350
0.84567 0.07296 0.59463
0.93343 0.07507 0.59556
0.06950 0.14655 0.58921
0.15703 0.14852 0.59021
0.26300 0.15094 0.59141
0.38133 0.15368 0.59271
0.50587 0.15661 0.59405
0.63049 0.15958 0.59538
0.74904 0.16245 0.59662
0.85534 0.16505 0.59771
0.94322 0.16722 0.59861
0.08035 0.25750 0.59320
0.16805 0.25957 0.59414
0.27424 0.26211 0.59527
0.39278 0.26497 0.59651
0.51754 0.26802 0.59780
0.64236 0.27111 0.59907
0.76109 0.27409 0.60027
0.86754 0.27678 0.60133
0.95555 0.27903 0.60221
0.09325 0.38175 0.59740
0.18112 0.38391 0.59830
0.28749 0.38656 0.59938
0.40624 0.38954 0.60058
0.53120 0.39271 0.60182
0.65622 0.39592 0.60306
0.77512 0.39901 0.60423
0.88174 0.40180 0.60527
0.96987 0.40413 0.60613
0.10757 0.51288 0.60165
0.19559 0.51513 0.60252
0.30214 0.51788 0.60357
0.42107 0.52098 0.60474
0.54622 0.52428 0.60596
0.67142 0.52760 0.60717
0.79049 0.53080 0.60833
0.89725 0.53368 0.60936
0.98550 0.53609 0.61021
0.12257 0.64442 0.60579
0.21071 0.64676 0.60664
0.31741 0.64961 0.60768
0.43651 0.65282 0.60883
0.56183 0.65622 0.61003
0.68720 0.65966 0.61124
0.80643 0.66296 0.61238
0.91332 0.66593 0.61341
1.00000 0.66841 0.61425
0.13737 0.76984 0.60966
0.22563 0.77225 0.61051
0.33246 0.77519 0.61154
0.45171 0.77849 0.61268
0.57718 0.78200 0.61388
0.70269 0.78553 0.61509
0.82206 0.78893 0.61623
0.92907 0.79199 0.61725
1.00000 0.79454 0.61810
0.15106 0.88252 0.61311
0.23942 0.88500 0.61396
0.34636 0.88801 0.61498
0.46573 0.89140 0.61613
0.59132 0.89499 0.61733
0.71696 0.89862 0.61854
0.83644 0.90209 0.61969
0.94356 0.90522 0.62072
1.00000 0.90783 0.62157
0.16266 0.97584 0.61596
0.25109 0.97836 0.61681
0.35812 0.98144 0.61784
0.47758 0.98489 0.61898
0.60327 0.98856 0.62019
0.72901 0.99225 0.62140
0.84858 0.99579 0.62256
0.95578 0.99898 0.62359
1.00000 1.00000 0.62445
0.06230 0.05605 0.70083
0.14965 0.05794 0.70190
0.25544 0.06026 0.70317
0.37357 0.06290 0.70454
0.49794 0.06573 0.70595
0.62239 0.06862 0.70732
0.74079 0.07140 0.70860
0.84696 0.07393 0.70973
0.93474 0.07604 0.71065
0.07069 0.14745 0.70434
0.15823 0.14943 0.70534
0.26424 0.15186 0.70652
0.38259 0.15462 0.70782
0.50716 0.15756 0.70916
0.63180 0.16055 0.71047
0.75037 0.16343 0.71171
0.85669 0.16604 0.71280
0.94458 0.16822 0.71369
0.08162 0.25845 0.70830
0.16934 0.26053 0.70924
0.27554 0.26307 0.71036
0.39411 0.26595 0.71160
0.51889 0.26902 0.71288
0.64373 0.27212 0.71415
0.76248 0.27510 0.71534
0.86895 0.27781 0.71641
0.95697 0.28006 0.71728
0.09459 0.38274 0.71249
0.18248 0.38491 0.71338
0.28887 0.38757 0.71446
0.40763 0.39056 0.71565
0.53261 0.39375 0.71690
0.65765 0.39697 0.71813
0.77657 0.40006 0.71930
0.88320 0.40287 0.72034
0.97134 0.40520 0.72120
0.10899 0.51391 0.71672
0.19701 0.51617 0.71759
0.30358 0.51893 0.71864
0.42252 0.52204 0.71981
0.54769 0.52535 0.72102
0.67291 0.52868 0.72224
0.79200 0.53189 0.72339
0.89877 0.53479 0.72442
0.98703 0.53720 0.72527
0.12404 0.64549 0.72085
0.21219 0.64784 0.72171
0.31891 0.65069 0.72274
0.43802 0.65391 0.72389
0.56336 0.65733 0.72510
0.68874 0.66077 0.72630
0.80798 0.66408 0.72744
0.91489 0.66707 0.72847
1.00000 0.66956 0.72931
0.13890 0.77094 0.72472
0.22716 0.77336 0.72557
0.33401 0.77631 0.72660
0.45327 0.77962 0.72774
0.57875 0.78314 0.72894
0.70428 0.78668 0.73015
0.82366 0.79008 0.73129
0.93069 0.79315 0.73232
1.00000 0.79571 0.73317
0.15263 0.88366 0.72817
0.24099 0.88614 0.72902
0.34795 0.88916 0.73004
0.46733 0.89256 0.73119
0.59294 0.89616 0.73239
0.71859 0.89979 0.73360
0.83808 0.90328 0.73475
0.94521 0.90642 0.73578
1.00000 0.90903 0.73663
0.16426 0.97699 0.73102
0.25270 0.97952 0.73187
0.35974 0.98261 0.73290
0.47921 0.98607 0.73404
0.60492 0.98974 0.73525
0.73067 0.99345 0.73647
0.85025 0.99699 0.73762
0.95746 1.00000 0.73866
1.00000 1.00000 0.73952
0.06328 0.05682 0.80405
0.15066 0.05872 0.80511
0.25648 0.06106 0.80637
0.37465 0.06372 0.80773
0.49904 0.06656 0.80912
0.62352 0.06946 0.81049
0.74194 0.07225 0.81176
0.84813 0.07479 0.81289
0.93592 0.07691 0.81380
0.07175 0.14826 0.80753
0.15932 0.15025 0.80852
0.26535 0.15270 0.80970
0.38372 0.15547 0.81098
0.50831 0.15842 0.81232
0.63298 0.16142 0.81363
0.75157 0.16432 0.81485
0.85790 0.16694 0.81594
0.94581 0.16912 0.81684
0.08276 0.25930 0.81147
0.17050 0.26139 0.81240
0.27672 0.26395 0.81352
0.39530 0.26683 0.81475
0.52010 0.26991 0.81602
0.64496 0.27302 0.81729
0.76373 0.27602 0.81848
0.87022 0.27873 0.81954
0.95825 0.28100 0.82041
0.09580 0.38363 0.81563
0.18370 0.38581 0.81653
0.29011 0.38847 0.81760
0.40889 0.39148 0.81879
0.53388 0.39468 0.82003
0.65894 0.39791 0.82126
0.77788 0.40101 0.82243
0.88452 0.40382 0.82347
0.97267 0.40616 0.82433
0.11026 0.51484 0.81985
0.19830 0.51711 0.82072
0.30487 0.51988 0.82177
0.42383 0.52299 0.82293
0.54901 0.52631 0.82415
0.67425 0.52966 0.82537
0.79335 0.53287 0.82652
0.90014 0.53577 0.82754
0.98841 0.53819 0.82839
0.12536 0.64645 0.82398
0.21353 0.64880 0.82483
0.32025 0.65167 0.82587
0.43938 0.65490 0.82701
0.56473 0.65832 0.82822
0.69013 0.66178 0.82942
0.80938 0.66509 0.83057
0.91630 0.66809 0.83159
1.00000 0.67058 0.83244
0.14026 0.77193 0.82785
0.22854 0.77436 0.82870
0.33540 0.77731 0.82972
0.45467 0.78063 0.83086
0.58017 0.78416 0.83207
0.70571 0.78772 0.83327
0.82510 0.79112 0.83441
0.93214 0.79420 0.83544
1.00000 0.79676 0.83629
0.15404 0.88467 0.83130
0.24241 0.88716 0.83214
0.34938 0.89019 0.83317
0.46877 0.89360 0.83431
0.59439 0.89721 0.83552
0.72005 0.90085 0.83672
0.83956 0.90434 0.83787
0.94670 0.90749 0.83891
1.00000 0.91011 0.83976
0.16570 0.97803 0.83415
0.25414 0.98057 0.83499
0.36120 0.98366 0.83602
0.48068 0.98713 0.83717
0.60640 0.99081 0.83838
0.73216 0.99452 0.83959
0.85176 0.99808 0.84075
0.95897 1.00000 0.84179
1.00000 1.00000 0.84265
0.06411 0.05746 0.88934
0.15151 0.05937 0.89040
0.25735 0.06172 0.89164
0.37554 0.06439 0.89299
0.49995 0.06725 0.89438
0.62445 0.07016 0.89574
0.74289 0.07296 0.89701
0.84910 0.07551 0.89813
0.93691 0.07764 0.89905
0.07264 0.14893 0.89280
0.16023 0.15094 0.89378
0.26627 0.15339 0.89495
0.38466 0.15617 0.89624
0.50927 0.15914 0.89756
0.63396 0.16215 0.89887
0.75256 0.16505 0.90009
0.85891 0.16768 0.90118
0.94683 0.16987 0.90207
0.08371 0.26001 0.89671
0.17146 0.26210 0.89764
0.27770 0.26467 0.89876
0.39630 0.26757 0.89998
0.52111 0.27065 0.90126
0.64599 0.27377 0.90252
0.76477 0.27678 0.90371
0.87127 0.27950 0.90477
0.95930 0.28177 0.90564
0.09681 0.38437 0.90087
0.18472 0.38655 0.90176
0.29114 0.38923 0.90283
0.40993 0.39224 0.90402
0.53494 0.39544 0.90526
0.66001 0.39869 0.90649
0.77896 0.40180 0.90765
0.88561 0.40462 0.90869
0.97377 0.40696 0.90955
0.11131 0.51561 0.90508
0.19936 0.51788 0.90595
0.30595 0.52066 0.90700
0.42492 0.52378 0.90816
0.55011 0.52711 0.90937
0.67536 0.53046 0.91059
0.79447 0.53368 0.91173
0.90127 0.53659 0.91276
0.98955 0.53902 0.91361
0.12646 0.64725 0.90920
0.21463 0.64961 0.91005
0.32137 0.65248 0.91109
0.44051 0.65571 0.91223
0.56587 0.65915 0.91344
0.69128 0.66261 0.91464
0.81054 0.66593 0.91579
0.91747 0.66893 0.91681
1.00000 0.67143 0.91766
0.14140 0.77276 0.91307
0.22969 0.77518 0.91391
0.33655 0.77814 0.91494
0.45583 0.78147 0.91608
0.58134 0.78501 0.91729
0.70689 0.78857 0.91849
0.82629 0.79199 0.91963
0.93334 0.79507 0.92066
1.00000 0.79763 0.92151
0.15520 0.88552 0.91652
0.24358 0.88801 0.91736
0.35056 0.89104 0.91839
0.46996 0.89446 0.91953
0.59559 0.89808 0.92074
0.72127 0.90173 0.92194
0.84078 0.90522 0.92309
0.94793 0.90838 0.92413
1.00000 0.91100 0.92498
0.16689 0.97889 0.91936
0.25534 0.98143 0.92021
0.36240 0.98453 0.92124
0.48190 0.98801 0.92239
0.60763 0.99170 0.92360
0.73340 0.99542 0.92482
0.85300 0.99898 0.92597
0.96023 1.00000 0.92701
1.00000 1.00000 0.92788
