nexa-remotion/kit/public/fx/warm-film.cube
TITLE "nexa warm film"
LUT_3D_SIZE 5
DOMAIN_MIN 0 0 0
DOMAIN_MAX 1 1 1
0.05638 0.05130 0.03946
0.24900 0.05527 0.04207
0.49108 0.06053 0.04502
0.73360 0.06601 0.04779
0.92732 0.07052 0.04991
0.07446 0.25308 0.04748
0.26816 0.25758 0.04961
0.51123 0.26337 0.05220
0.75459 0.26932 0.05471
0.94890 0.27417 0.05668
0.10097 0.50804 0.05611
0.29539 0.51296 0.05806
0.53931 0.51925 0.06047
0.78343 0.52567 0.06285
0.97832 0.53088 0.06474
0.13022 0.76466 0.06419
0.32520 0.76993 0.06607
0.56977 0.77664 0.06842
0.81452 0.78348 0.07077
1.00000 0.78902 0.07264
0.15514 0.97040 0.07050
0.35050 0.97593 0.07237
0.59552 0.98296 0.07472
0.84071 0.99010 0.07708
1.00000 0.99588 0.07897
0.05797 0.05262 0.22810
0.25079 0.05667 0.23060
0.49300 0.06199 0.23349
0.73562 0.06753 0.23622
0.92941 0.07208 0.23832
0.07647 0.25460 0.23592
0.27024 0.25913 0.23802
0.51339 0.26496 0.24059
0.75681 0.27095 0.24309
0.95118 0.27584 0.24505
0.10323 0.50970 0.24448
0.29771 0.51465 0.24642
0.54168 0.52098 0.24882
0.78585 0.52743 0.25120
0.98079 0.53267 0.25308
0.13268 0.76644 0.25254
0.32770 0.77173 0.25441
0.57232 0.77848 0.25676
0.81711 0.78535 0.25911
1.00000 0.79092 0.26098
0.15773 0.97227 0.25884
0.35312 0.97782 0.26071
0.59819 0.98488 0.26306
0.84342 0.99206 0.26543
1.00000 0.99786 0.26732
0.06009 0.05432 0.46448
0.25309 0.05845 0.46689
0.49545 0.06385 0.46973
0.73819 0.06945 0.47242
0.93206 0.07405 0.47449
0.07903 0.25651 0.47212
0.27287 0.26109 0.47420
0.51612 0.26698 0.47674
0.75963 0.27302 0.47922
0.95406 0.27794 0.48116
0.10610 0.51180 0.48060
0.30063 0.51678 0.48253
0.54467 0.52315 0.48492
0.78892 0.52965 0.48729
0.98390 0.53493 0.48918
0.13578 0.76868 0.48863
0.33084 0.77401 0.49051
0.57552 0.78080 0.49285
0.82038 0.78771 0.49520
1.00000 0.79331 0.49707
0.16098 0.97462 0.49493
0.35642 0.98021 0.49680
0.60155 0.98731 0.49916
0.84683 0.99452 0.50152
1.00000 1.00000 0.50342
0.06230 0.05605 0.70083
0.25544 0.06026 0.70317
0.49794 0.06573 0.70595
0.74079 0.07140 0.70860
0.93474 0.07604 0.71065
0.08162 0.25845 0.70830
0.27554 0.26307 0.71036
0.51889 0.26902 0.71288
0.76248 0.27510 0.71534
0.95697 0.28006 0.71728
0.10899 0.51391 0.71672
0.30358 0.51893 0.71864
0.54769 0.52535 0.72102
0.79200 0.53189 0.72339
0.98703 0.53720 0.72527
0.13890 0.77094 0.72472
0.33401 0.77631 0.72660
0.57875 0.78314 0.72894
0.82366 0.79008 0.73129
1.00000 0.79571 0.73317
0.16426 0.97699 0.73102
0.35974 0.98261 0.73290
0.60492 0.98974 0.73525
0.85025 0.99699 0.73762
1.00000 1.00000 0.73952
0.06411 0.05746 0.88934
0.25735 0.06172 0.89164
0.49995 0.06725 0.89438
0.74289 0.07296 0.89701
0.93691 0.07764 0.89905
0.08371 0.26001 0.89671
0.27770 0.26467 0.89876
0.52111 0.27065 0.90126
0.76477 0.27678 0.90371
0.95930 0.28177 0.90564
0.11131 0.51561 0.90508
0.30595 0.52066 0.90700
0.55011 0.52711 0.90937
0.79447 0.53368 0.91173
0.98955 0.53902 0.91361
0.14140 0.77276 0.91307
0.33655 0.77814 0.91494
0.58134 0.78501 0.91729
0.82629 0.79199 0.91963
1.00000 0.79763 0.92151
0.16689 0.97889 0.91936
0.36240 0.98453 0.92124
0.60763 0.99170 0.92360
0.85300 0.99898 0.92597
1.00000 1.00000 0.92788
