nexa-remotion/kit/public/fx/warm-film.cube
TITLE "nexa warm film"
LUT_3D_SIZE 17
DOMAIN_MIN 0 0 0
DOMAIN_MAX 1 1 1
0.05638 0.05130 0.03946
0.09723 0.05212 0.04005
0.14346 0.05306 0.04068
0.19430 0.05412 0.04136
0.24900 0.05527 0.04207
0.30680 0.05650 0.04279
0.36692 0.05780 0.04353
0.42860 0.05915 0.04428
0.49108 0.06053 0.04502
0.55359 0.06192 0.04575
0.61536 0.06332 0.04646
0.67562 0.06468 0.04714
0.73360 0.06601 0.04779
0.78853 0.06728 0.04840
0.83964 0.06847 0.04896
0.88617 0.06956 0.04946
0.92732 0.07052 0.04991
0.05983 0.09397 0.04136
0.10078 0.09483 0.04189
0.14710 0.09582 0.04247
0.19803 0.09691 0.04311
0.25281 0.09810 0.04378
0.31067 0.09937 0.04447
0.37086 0.10070 0.04518
0.43261 0.10208 0.04590
0.49515 0.10349 0.04661
0.55772 0.10492 0.04732
0.61954 0.10634 0.04801
0.67985 0.10773 0.04868
0.73788 0.10909 0.04931
0.79285 0.11038 0.04990
0.84400 0.11159 0.05045
0.89056 0.11269 0.05095
0.93174 0.11368 0.05139
0.06406 0.14236 0.04332
0.10507 0.14325 0.04382
0.15146 0.14427 0.04438
0.20246 0.14539 0.04498
0.25730 0.14662 0.04562
0.31524 0.14792 0.04629
0.37549 0.14929 0.04698
0.43730 0.15070 0.04767
0.49990 0.15214 0.04836
0.56252 0.15360 0.04905
0.62440 0.15505 0.04972
0.68476 0.15647 0.05037
0.74284 0.15785 0.05099
0.79786 0.15917 0.05157
0.84904 0.16040 0.05211
0.89563 0.16153 0.05260
0.93685 0.16253 0.05303
0.06896 0.19566 0.04537
0.11003 0.19658 0.04585
0.15647 0.19763 0.04638
0.20753 0.19878 0.04696
0.26244 0.20004 0.04758
0.32043 0.20138 0.04822
0.38075 0.20278 0.04889
0.44262 0.20422 0.04956
0.50528 0.20570 0.05023
0.56796 0.20719 0.05090
0.62989 0.20867 0.05156
0.69030 0.21012 0.05220
0.74843 0.21153 0.05280
0.80349 0.21287 0.05337
0.85472 0.21412 0.05390
0.90134 0.21527 0.05438
0.94259 0.21629 0.05480
0.07446 0.25308 0.04748
0.11558 0.25403 0.04794
0.16208 0.25510 0.04845
0.21319 0.25629 0.04901
0.26816 0.25758 0.04961
0.32621 0.25895 0.05023
0.38659 0.26038 0.05088
0.44852 0.26186 0.05154
0.51123 0.26337 0.05220
0.57397 0.26489 0.05285
0.63595 0.26640 0.05349
0.69642 0.26788 0.05412
0.75459 0.26932 0.05471
0.80969 0.27068 0.05527
0.86096 0.27196 0.05579
0.90762 0.27313 0.05626
0.94890 0.27417 0.05668
0.08050 0.31383 0.04963
0.12166 0.31480 0.05007
0.16820 0.31590 0.05057
0.21937 0.31712 0.05111
0.27439 0.31844 0.05169
0.33250 0.31984 0.05230
0.39293 0.32130 0.05293
0.45492 0.32282 0.05358
0.51769 0.32436 0.05422
0.58048 0.32591 0.05486
0.64252 0.32745 0.05549
0.70303 0.32896 0.05611
0.76125 0.33043 0.05669
0.81640 0.33182 0.05725
0.86771 0.33312 0.05776
0.91440 0.33431 0.05822
0.95571 0.33537 0.05863
0.08698 0.37711 0.05179
0.12819 0.37811 0.05222
0.17478 0.37923 0.05271
0.22599 0.38048 0.05324
0.28106 0.38183 0.05381
0.33923 0.38326 0.05441
0.39971 0.38475 0.05503
0.46175 0.38630 0.05566
0.52458 0.38787 0.05629
0.58742 0.38945 0.05692
0.64951 0.39103 0.05754
0.71007 0.39257 0.05815
0.76833 0.39406 0.05872
0.82352 0.39548 0.05927
0.87487 0.39680 0.05978
0.92160 0.39802 0.06024
0.96294 0.39909 0.06064
0.09384 0.44212 0.05396
0.13508 0.44313 0.05438
0.18171 0.44429 0.05486
0.23297 0.44556 0.05538
0.28810 0.44694 0.05594
0.34631 0.44840 0.05653
0.40685 0.44992 0.05713
0.46894 0.45150 0.05775
0.53181 0.45310 0.05838
0.59471 0.45472 0.05900
0.65684 0.45632 0.05962
0.71745 0.45789 0.06021
0.77576 0.45941 0.06078
0.83099 0.46085 0.06132
0.88238 0.46220 0.06183
0.92914 0.46344 0.06228
0.97051 0.46453 0.06268
0.10097 0.50804 0.05611
0.14225 0.50908 0.05653
0.18892 0.51026 0.05699
0.24023 0.51156 0.05751
0.29539 0.51296 0.05806
0.35365 0.51445 0.05864
0.41424 0.51601 0.05924
0.47638 0.51761 0.05985
0.53931 0.51925 0.06047
0.60224 0.52089 0.06108
0.66443 0.52252 0.06169
0.72508 0.52412 0.06228
0.78343 0.52567 0.06285
0.83870 0.52714 0.06339
0.89012 0.52851 0.06388
0.93692 0.52977 0.06434
0.97832 0.53088 0.06474
0.10828 0.57408 0.05823
0.14959 0.57514 0.05864
0.19630 0.57634 0.05910
0.24765 0.57766 0.05961
0.30286 0.57909 0.06015
0.36116 0.58061 0.06072
0.42179 0.58220 0.06132
0.48398 0.58383 0.06192
0.54695 0.58549 0.06254
0.60994 0.58717 0.06315
0.67216 0.58883 0.06375
0.73286 0.59045 0.06434
0.79125 0.59203 0.06490
0.84656 0.59352 0.06543
0.89801 0.59492 0.06593
0.94484 0.59619 0.06638
0.98627 0.59733 0.06678
0.11567 0.63941 0.06029
0.15701 0.64048 0.06070
0.20376 0.64170 0.06115
0.25514 0.64305 0.06166
0.31039 0.64451 0.06220
0.36874 0.64605 0.06276
0.42941 0.64767 0.06335
0.49164 0.64933 0.06395
0.55465 0.65102 0.06456
0.61768 0.65272 0.06517
0.67995 0.65441 0.06577
0.74068 0.65606 0.06636
0.79911 0.65766 0.06692
0.85446 0.65918 0.06745
0.90595 0.66060 0.06795
0.95280 0.66190 0.06839
0.99426 0.66304 0.06879
0.12302 0.70321 0.06229
0.16439 0.70430 0.06269
0.21117 0.70554 0.06314
0.26259 0.70691 0.06364
0.31787 0.70840 0.06418
0.37626 0.70997 0.06474
0.43697 0.71161 0.06533
0.49924 0.71330 0.06593
0.56230 0.71501 0.06653
0.62537 0.71674 0.06714
0.68767 0.71845 0.06774
0.74844 0.72013 0.06832
0.80691 0.72175 0.06888
0.86229 0.72330 0.06941
0.91381 0.72474 0.06991
0.96069 0.72605 0.07036
1.00000 0.72722 0.07075
0.13022 0.76466 0.06419
0.17162 0.76577 0.06459
0.21843 0.76703 0.06504
0.26988 0.76842 0.06554
0.32520 0.76993 0.06607
0.38362 0.77152 0.06663
0.44437 0.77319 0.06722
0.50668 0.77490 0.06782
0.56977 0.77664 0.06842
0.63288 0.77840 0.06903
0.69522 0.78013 0.06962
0.75603 0.78184 0.07021
0.81452 0.78348 0.07077
0.86993 0.78504 0.07130
0.92148 0.78650 0.07179
0.96839 0.78784 0.07224
1.00000 0.78902 0.07264
0.13716 0.82293 0.06599
0.17858 0.82406 0.06638
0.22541 0.82534 0.06683
0.27689 0.82675 0.06733
0.33225 0.82828 0.06786
0.39070 0.82989 0.06842
0.45149 0.83158 0.06900
0.51383 0.83332 0.06960
0.57695 0.83508 0.07021
0.64009 0.83686 0.07081
0.70247 0.83862 0.07141
0.76331 0.84034 0.07199
0.82183 0.84201 0.07255
0.87727 0.84359 0.07308
0.92885 0.84507 0.07358
0.97578 0.84642 0.07403
1.00000 0.84762 0.07443
0.14371 0.87720 0.06765
0.18515 0.87834 0.06805
0.23201 0.87964 0.06850
0.28351 0.88107 0.06899
0.33890 0.88261 0.06952
0.39738 0.88425 0.07008
0.45819 0.88596 0.07067
0.52057 0.88772 0.07126
0.58372 0.88951 0.07187
0.64689 0.89130 0.07247
0.70930 0.89308 0.07307
0.77017 0.89483 0.07365
0.82872 0.89651 0.07422
0.88418 0.89811 0.07475
0.93578 0.89961 0.07524
0.98274 0.90097 0.07570
1.00000 0.90218 0.07610
0.14974 0.92663 0.06916
0.19120 0.92779 0.06956
0.23808 0.92910 0.07001
0.28961 0.93055 0.07050
0.34502 0.93211 0.07103
0.40353 0.93376 0.07159
0.46437 0.93549 0.07218
0.52677 0.93727 0.07277
0.58996 0.93908 0.07338
0.65315 0.94089 0.07399
0.71558 0.94269 0.07459
0.77648 0.94445 0.07517
0.83505 0.94616 0.07573
0.89054 0.94777 0.07627
0.94216 0.94928 0.07676
0.98914 0.95066 0.07722
1.00000 0.95188 0.07762
0.15514 0.97040 0.07050
0.19662 0.97157 0.07090
0.24352 0.97289 0.07135
0.29507 0.97435 0.07184
0.35050 0.97593 0.07237
0.40903 0.97760 0.07293
0.46989 0.97934 0.07352
0.53232 0.98114 0.07411
0.59552 0.98296 0.07472
0.65874 0.98479 0.07533
0.72120 0.98661 0.07593
0.78211 0.98839 0.07651
0.84071 0.99010 0.07708
0.89622 0.99174 0.07761
0.94786 0.99326 0.07811
0.99485 0.99465 0.07857
1.00000 0.99588 0.07897
0.05671 0.05158 0.07953
0.09757 0.05240 0.08011
0.14381 0.05335 0.08073
0.19467 0.05441 0.08140
0.24938 0.05557 0.08211
0.30718 0.05680 0.08283
0.36731 0.05810 0.08357
0.42900 0.05946 0.08431
0.49149 0.06084 0.08504
0.55400 0.06224 0.08577
0.61578 0.06363 0.08648
0.67604 0.06500 0.08716
0.73403 0.06633 0.08781
0.78896 0.06760 0.08841
0.84008 0.06879 0.08897
0.88660 0.06988 0.08948
0.92776 0.07085 0.08992
0.06020 0.09426 0.08140
0.10116 0.09513 0.08193
0.14748 0.09612 0.08251
0.19842 0.09721 0.08314
0.25320 0.09840 0.08381
0.31107 0.09968 0.08450
0.37127 0.10101 0.08521
0.43302 0.10239 0.08592
0.49557 0.10381 0.08663
0.55814 0.10524 0.08734
0.61997 0.10666 0.08803
0.68028 0.10806 0.08869
0.73832 0.10941 0.08932
0.79329 0.11071 0.08992
0.84445 0.11192 0.09047
0.89100 0.11303 0.09096
0.93219 0.11401 0.09140
0.06445 0.14266 0.08336
0.10547 0.14356 0.08385
0.15186 0.14458 0.08441
0.20286 0.14570 0.08501
0.25771 0.14693 0.08565
0.31565 0.14824 0.08631
0.37591 0.14960 0.08700
0.43773 0.15102 0.08769
0.50033 0.15247 0.08838
0.56296 0.15393 0.08907
0.62484 0.15538 0.08974
0.68521 0.15680 0.09038
0.74329 0.15819 0.09100
0.79831 0.15950 0.09158
0.84950 0.16074 0.09212
0.89609 0.16187 0.09261
0.93731 0.16287 0.09304
0.06937 0.19597 0.08540
0.11044 0.19689 0.08587
0.15689 0.19794 0.08640
0.20795 0.19910 0.08698
0.26286 0.20036 0.08760
0.32086 0.20170 0.08824
0.38118 0.20310 0.08890
0.44306 0.20455 0.08957
0.50573 0.20603 0.09025
0.56841 0.20752 0.09092
0.63034 0.20900 0.09157
0.69076 0.21046 0.09220
0.74889 0.21187 0.09281
0.80395 0.21321 0.09338
0.85519 0.21447 0.09391
0.90181 0.21561 0.09439
0.94306 0.21664 0.09481
0.07489 0.25340 0.08750
0.11601 0.25435 0.08795
0.16251 0.25543 0.08847
0.21363 0.25662 0.08903
0.26860 0.25791 0.08962
0.32665 0.25928 0.09025
0.38703 0.26071 0.09089
0.44897 0.26219 0.09155
0.51169 0.26371 0.09220
0.57443 0.26523 0.09286
0.63642 0.26674 0.09350
0.69688 0.26822 0.09412
0.75506 0.26966 0.09472
0.81017 0.27103 0.09528
0.86144 0.27231 0.09580
0.90810 0.27348 0.09627
0.94939 0.27452 0.09668
0.08094 0.31416 0.08964
0.12210 0.31513 0.09008
0.16865 0.31624 0.09058
0.21982 0.31746 0.09112
0.27484 0.31878 0.09170
0.33296 0.32018 0.09231
0.39339 0.32164 0.09294
0.45538 0.32316 0.09358
0.51816 0.32470 0.09423
0.58095 0.32626 0.09487
0.64299 0.32780 0.09550
0.70351 0.32931 0.09611
0.76173 0.33078 0.09670
0.81688 0.33217 0.09725
0.86819 0.33348 0.09776
0.91489 0.33467 0.09822
0.95621 0.33573 0.09863
0.08744 0.37745 0.09180
0.12864 0.37844 0.09223
0.17524 0.37957 0.09272
0.22645 0.38082 0.09325
0.28153 0.38217 0.09382
0.33970 0.38360 0.09441
0.40019 0.38510 0.09503
0.46223 0.38665 0.09566
0.52506 0.38822 0.09629
0.58791 0.38981 0.09692
0.65000 0.39138 0.09755
0.71056 0.39293 0.09815
0.76883 0.39442 0.09873
0.82402 0.39584 0.09927
0.87537 0.39717 0.09978
0.92210 0.39838 0.10024
0.96345 0.39946 0.10064
0.09430 0.44246 0.09397
0.13555 0.44348 0.09439
0.18219 0.44463 0.09486
0.23345 0.44591 0.09539
0.28857 0.44729 0.09594
0.34679 0.44875 0.09653
0.40733 0.45028 0.09714
0.46943 0.45186 0.09776
0.53231 0.45346 0.09838
0.59520 0.45508 0.09900
0.65734 0.45668 0.09962
0.71795 0.45826 0.10021
0.77626 0.45978 0.10078
0.83150 0.46122 0.10132
0.88288 0.46258 0.10183
0.92965 0.46381 0.10228
0.97102 0.46491 0.10268
0.10145 0.50840 0.09611
0.14273 0.50943 0.09653
0.18941 0.51061 0.09700
0.24071 0.51191 0.09751
0.29588 0.51332 0.09806
0.35415 0.51481 0.09864
0.41473 0.51637 0.09924
0.47688 0.51798 0.09985
0.53981 0.51961 0.10047
0.60275 0.52126 0.10108
0.66494 0.52289 0.10169
0.72559 0.52449 0.10228
0.78394 0.52604 0.10285
0.83922 0.52752 0.10338
0.89064 0.52889 0.10388
0.93744 0.53015 0.10434
0.97884 0.53126 0.10474
0.10877 0.57444 0.09823
0.15008 0.57550 0.09864
0.19680 0.57670 0.09910
0.24815 0.57802 0.09961
0.30336 0.57946 0.10015
0.36167 0.58098 0.10072
0.42230 0.58256 0.10132
0.48449 0.58420 0.10192
0.54747 0.58587 0.10253
0.61045 0.58754 0.10315
0.67268 0.58920 0.10375
0.73338 0.59083 0.10434
0.79177 0.59241 0.10490
0.84708 0.59390 0.10543
0.89854 0.59530 0.10593
0.94537 0.59658 0.10638
0.98680 0.59771 0.10678
0.11617 0.63977 0.10029
0.15751 0.64085 0.10070
0.20426 0.64207 0.10115
0.25565 0.64342 0.10166
0.31090 0.64488 0.10219
0.36925 0.64643 0.10276
0.42993 0.64804 0.10335
0.49216 0.64971 0.10395
0.55518 0.65140 0.10456
0.61821 0.65310 0.10517
0.68048 0.65479 0.10577
0.74121 0.65645 0.10636
0.79964 0.65805 0.10692
0.85499 0.65957 0.10745
0.90648 0.66099 0.10794
0.95334 0.66229 0.10839
0.99480 0.66344 0.10879
0.12353 0.70358 0.10228
0.16490 0.70467 0.10269
0.21168 0.70592 0.10314
0.26310 0.70729 0.10364
0.31839 0.70877 0.10417
0.37678 0.71034 0.10474
0.43750 0.71199 0.10532
0.49977 0.71368 0.10592
0.56283 0.71540 0.10653
0.62590 0.71713 0.10714
0.68821 0.71884 0.10774
0.74898 0.72052 0.10832
0.80745 0.72215 0.10888
0.86283 0.72369 0.10941
0.91435 0.72513 0.10990
0.96124 0.72645 0.11035
1.00000 0.72761 0.11075
0.13074 0.76503 0.10419
0.17214 0.76615 0.10459
0.21895 0.76741 0.10504
0.27040 0.76881 0.10554
0.32573 0.77031 0.10607
0.38415 0.77191 0.10663
0.44491 0.77357 0.10722
0.50722 0.77529 0.10781
0.57031 0.77703 0.10842
0.63342 0.77879 0.10902
0.69576 0.78053 0.10962
0.75657 0.78223 0.11020
0.81507 0.78388 0.11076
0.87048 0.78544 0.11130
0.92203 0.78690 0.11179
0.96895 0.78824 0.11224
1.00000 0.78942 0.11264
0.13769 0.82331 0.10598
0.17911 0.82444 0.10638
0.22595 0.82573 0.10683
0.27743 0.82714 0.10733
0.33278 0.82866 0.10786
0.39124 0.83028 0.10842
0.45203 0.83197 0.10900
0.51437 0.83371 0.10960
0.57750 0.83548 0.11020
0.64064 0.83726 0.11081
0.70302 0.83902 0.11141
0.76386 0.84074 0.11199
0.82239 0.84241 0.11255
0.87783 0.84400 0.11308
0.92941 0.84548 0.11358
0.97634 0.84683 0.11403
1.00000 0.84802 0.11443
0.14424 0.87759 0.10765
0.18569 0.87873 0.10805
0.23255 0.88003 0.10850
0.28406 0.88146 0.10899
0.33944 0.88301 0.10952
0.39793 0.88464 0.11008
0.45874 0.88635 0.11066
0.52112 0.88812 0.11126
0.58428 0.88991 0.11187
0.64745 0.89170 0.11247
0.70986 0.89349 0.11307
0.77073 0.89523 0.11365
0.82928 0.89692 0.11421
0.88475 0.89852 0.11475
0.93635 0.90002 0.11524
0.98331 0.90138 0.11569
1.00000 0.90260 0.11609
0.15028 0.92703 0.10916
0.19175 0.92818 0.10956
0.23863 0.92950 0.11001
0.29016 0.93094 0.11050
0.34557 0.93251 0.11103
0.40408 0.93416 0.11159
0.46493 0.93589 0.11217
0.52733 0.93767 0.11277
0.59052 0.93948 0.11338
0.65371 0.94130 0.11398
0.71615 0.94310 0.11458
0.77704 0.94486 0.11517
0.83562 0.94657 0.11573
0.89111 0.94819 0.11627
0.94273 0.94970 0.11676
0.98971 0.95108 0.11722
1.00000 0.95230 0.11762
0.15569 0.97080 0.11050
0.19717 0.97197 0.11089
0.24407 0.97329 0.11134
0.29562 0.97475 0.11184
0.35105 0.97633 0.11237
0.40959 0.97800 0.11293
0.47045 0.97975 0.11351
0.53288 0.98154 0.11411
0.59609 0.98337 0.11472
0.65931 0.98520 0.11533
0.72177 0.98702 0.11593
0.78268 0.98880 0.11651
0.84129 0.99052 0.11708
0.89680 0.99215 0.11761
0.94844 0.99368 0.11811
0.99543 0.99507 0.11856
1.00000 0.99630 0.11897
0.05709 0.05189 0.12482
0.09796 0.05272 0.12539
0.14422 0.05368 0.12601
0.19509 0.05474 0.12667
0.24981 0.05590 0.12737
0.30762 0.05714 0.12809
0.36775 0.05845 0.12882
0.42945 0.05980 0.12956
0.49195 0.06119 0.13030
0.55447 0.06259 0.13102
0.61625 0.06399 0.13172
0.67652 0.06536 0.13240
0.73451 0.06670 0.13305
0.78945 0.06797 0.13365
0.84057 0.06916 0.13421
0.88710 0.07026 0.13472
0.92827 0.07123 0.13516
0.06062 0.09459 0.12667
0.10158 0.09546 0.12719
0.14791 0.09645 0.12777
0.19886 0.09755 0.12840
0.25365 0.09875 0.12906
0.31153 0.10002 0.12975
0.37173 0.10136 0.13046
0.43349 0.10275 0.13117
0.49604 0.10417 0.13188
0.55862 0.10560 0.13258
0.62045 0.10702 0.13327
0.68077 0.10843 0.13393
0.73881 0.10978 0.13456
0.79379 0.11108 0.13516
0.84495 0.11229 0.13570
0.89151 0.11340 0.13620
0.93271 0.11439 0.13663
0.06489 0.14300 0.12862
0.10592 0.14390 0.12911
0.15231 0.14492 0.12966
0.20332 0.14606 0.13026
0.25818 0.14728 0.13090
0.31612 0.14859 0.13156
0.37639 0.14997 0.13224
0.43821 0.15138 0.13293
0.50082 0.15283 0.13362
0.56345 0.15430 0.13431
0.62534 0.15575 0.13497
0.68571 0.15718 0.13562
0.74379 0.15856 0.13624
0.79882 0.15988 0.13682
0.85002 0.16112 0.13735
0.89661 0.16225 0.13784
0.93784 0.16325 0.13827
0.06983 0.19633 0.13065
0.11091 0.19725 0.13112
0.15736 0.19830 0.13165
0.20843 0.19946 0.13223
0.26335 0.20072 0.13284
0.32135 0.20206 0.13348
0.38168 0.20347 0.13414
0.44356 0.20492 0.13481
0.50623 0.20640 0.13548
0.56892 0.20790 0.13615
0.63086 0.20938 0.13680
0.69128 0.21084 0.13744
0.74941 0.21225 0.13804
0.80448 0.21360 0.13861
0.85571 0.21486 0.13914
0.90235 0.21601 0.13962
0.94360 0.21703 0.14004
0.07537 0.25377 0.13274
0.11649 0.25472 0.13320
0.16300 0.25579 0.13371
0.21412 0.25699 0.13427
0.26909 0.25828 0.13486
0.32716 0.25965 0.13548
0.38754 0.26109 0.13613
0.44948 0.26257 0.13678
0.51221 0.26409 0.13744
0.57495 0.26561 0.13809
0.63694 0.26713 0.13873
0.69741 0.26862 0.13935
0.75559 0.27005 0.13995
0.81071 0.27143 0.14051
0.86198 0.27271 0.14102
0.90865 0.27388 0.14149
0.94993 0.27492 0.14191
0.08143 0.31453 0.13488
0.12260 0.31551 0.13532
0.16915 0.31661 0.13582
0.22033 0.31783 0.13636
0.27536 0.31916 0.13694
0.33348 0.32056 0.13755
0.39392 0.32203 0.13817
0.45591 0.32355 0.13881
0.51869 0.32509 0.13946
0.58149 0.32665 0.14010
0.64353 0.32820 0.14073
0.70405 0.32971 0.14134
0.76228 0.33118 0.14192
0.81743 0.33258 0.14247
0.86875 0.33388 0.14299
0.91545 0.33508 0.14345
0.95676 0.33614 0.14386
0.08795 0.37783 0.13704
0.12916 0.37883 0.13747
0.17576 0.37996 0.13795
0.22698 0.38121 0.13848
0.28206 0.38256 0.13905
0.34023 0.38399 0.13964
0.40072 0.38550 0.14026
0.46277 0.38704 0.14089
0.52560 0.38862 0.14152
0.58845 0.39021 0.14215
0.65055 0.39178 0.14277
0.71112 0.39333 0.14337
0.76938 0.39483 0.14395
0.82458 0.39625 0.14450
0.87594 0.39758 0.14500
0.92267 0.39880 0.14546
0.96402 0.39987 0.14587
0.09483 0.44285 0.13920
0.13608 0.44387 0.13962
0.18272 0.44503 0.14009
0.23399 0.44630 0.14061
0.28912 0.44768 0.14117
0.34734 0.44915 0.14176
0.40788 0.45068 0.14236
0.46998 0.45226 0.14298
0.53286 0.45387 0.14361
0.59576 0.45549 0.14423
0.65790 0.45709 0.14484
0.71852 0.45867 0.14544
0.77683 0.46019 0.14601
0.83207 0.46164 0.14655
0.88346 0.46299 0.14705
0.93023 0.46423 0.14750
0.97160 0.46533 0.14790
0.10199 0.50879 0.14134
0.14327 0.50983 0.14176
0.18995 0.51101 0.14222
0.24126 0.51232 0.14274
0.29644 0.51372 0.14329
0.35470 0.51522 0.14386
0.41530 0.51678 0.14446
0.47744 0.51839 0.14507
0.54038 0.52003 0.14569
0.60332 0.52168 0.14631
0.66551 0.52331 0.14691
0.72617 0.52492 0.14750
0.78452 0.52647 0.14807
0.83980 0.52794 0.14861
0.89123 0.52932 0.14910
0.93803 0.53057 0.14956
0.97943 0.53169 0.14996
0.10933 0.57484 0.14345
0.15064 0.57590 0.14386
0.19736 0.57711 0.14433
0.24871 0.57843 0.14483
0.30393 0.57987 0.14537
0.36224 0.58139 0.14595
0.42287 0.58298 0.14654
0.48507 0.58462 0.14714
0.54805 0.58629 0.14776
0.61104 0.58796 0.14837
0.67327 0.58963 0.14897
0.73397 0.59126 0.14956
0.79236 0.59284 0.15012
0.84768 0.59433 0.15065
0.89914 0.59573 0.15115
0.94597 0.59701 0.15160
0.98740 0.59815 0.15200
0.11674 0.64018 0.14552
0.15808 0.64126 0.14592
0.20483 0.64249 0.14638
0.25622 0.64384 0.14688
0.31148 0.64530 0.14742
0.36983 0.64685 0.14798
0.43051 0.64847 0.14857
0.49275 0.65013 0.14917
0.55577 0.65183 0.14978
0.61880 0.65353 0.15039
0.68107 0.65523 0.15099
0.74181 0.65688 0.15158
0.80025 0.65848 0.15214
0.85560 0.66001 0.15267
0.90709 0.66143 0.15316
0.95395 0.66273 0.15361
0.99541 0.66388 0.15401
0.12411 0.70400 0.14751
0.16548 0.70510 0.14791
0.21227 0.70634 0.14836
0.26369 0.70772 0.14886
0.31898 0.70920 0.14940
0.37737 0.71077 0.14996
0.43809 0.71242 0.15055
0.50037 0.71411 0.15114
0.56343 0.71583 0.15175
0.62650 0.71756 0.15236
0.68882 0.71928 0.15296
0.74959 0.72096 0.15354
0.80806 0.72259 0.15410
0.86344 0.72413 0.15463
0.91497 0.72558 0.15512
0.96186 0.72689 0.15557
1.00000 0.72806 0.15597
0.13133 0.76546 0.14941
0.17273 0.76658 0.14981
0.21955 0.76784 0.15026
0.27100 0.76924 0.15076
0.32633 0.77074 0.15129
0.38475 0.77234 0.15185
0.44551 0.77401 0.15244
0.50782 0.77573 0.15303
0.57092 0.77748 0.15364
0.63403 0.77923 0.15424
0.69638 0.78097 0.15484
0.75719 0.78268 0.15542
0.81569 0.78433 0.15598
0.87111 0.78589 0.15652
0.92266 0.78736 0.15701
0.96958 0.78869 0.15746
1.00000 0.78988 0.15786
0.13828 0.82375 0.15120
0.17971 0.82488 0.15160
0.22655 0.82616 0.15205
0.27803 0.82758 0.15255
0.33339 0.82910 0.15308
0.39185 0.83072 0.15364
0.45264 0.83241 0.15422
0.51499 0.83416 0.15482
0.57812 0.83593 0.15542
0.64126 0.83771 0.15603
0.70364 0.83947 0.15663
0.76449 0.84120 0.15721
0.82302 0.84287 0.15777
0.87846 0.84445 0.15830
0.93004 0.84593 0.15880
0.97698 0.84729 0.15925
1.00000 0.84849 0.15965
0.14485 0.87803 0.15287
0.18629 0.87917 0.15327
0.23316 0.88047 0.15372
0.28467 0.88191 0.15421
0.34005 0.88345 0.15474
0.39854 0.88509 0.15530
0.45936 0.88680 0.15588
0.52174 0.88857 0.15648
0.58490 0.89036 0.15709
0.64808 0.89216 0.15769
0.71049 0.89394 0.15829
0.77136 0.89569 0.15887
0.82992 0.89738 0.15944
0.88539 0.89898 0.15997
0.93699 0.90048 0.16046
0.98395 0.90185 0.16092
1.00000 0.90306 0.16131
0.15090 0.92747 0.15438
0.19236 0.92863 0.15478
0.23925 0.92994 0.15523
0.29078 0.93139 0.15572
0.34619 0.93296 0.15625
0.40471 0.93461 0.15681
0.46555 0.93634 0.15740
0.52796 0.93813 0.15799
0.59115 0.93994 0.15860
0.65435 0.94176 0.15921
0.71679 0.94356 0.15980
0.77768 0.94533 0.16039
0.83627 0.94703 0.16095
0.89176 0.94865 0.16149
0.94338 0.95016 0.16198
0.99036 0.95155 0.16244
1.00000 0.95277 0.16284
0.15631 0.97125 0.15572
0.19779 0.97242 0.15611
0.24469 0.97374 0.15656
0.29625 0.97520 0.15706
0.35168 0.97678 0.15759
0.41022 0.97846 0.15815
0.47109 0.98020 0.15873
0.53352 0.98200 0.15933
0.59673 0.98383 0.15994
0.65995 0.98566 0.16055
0.72241 0.98748 0.16115
0.78333 0.98927 0.16173
0.84194 0.99099 0.16230
0.89745 0.99262 0.16283
0.94909 0.99415 0.16333
0.99609 0.99554 0.16379
1.00000 0.99678 0.16419
0.05751 0.05224 0.17459
0.09840 0.05308 0.17515
0.14467 0.05404 0.17577
0.19555 0.05510 0.17643
0.25028 0.05627 0.17712
0.30810 0.05752 0.17783
0.36825 0.05883 0.17856
0.42995 0.06019 0.17930
0.49245 0.06158 0.18003
0.55498 0.06298 0.18075
0.61677 0.06438 0.18145
0.67705 0.06576 0.18213
0.73504 0.06710 0.18277
0.78999 0.06838 0.18337
0.84112 0.06957 0.18393
0.88765 0.07066 0.18443
0.92882 0.07164 0.18487
0.06108 0.09496 0.17642
0.10205 0.09583 0.17694
0.14839 0.09683 0.17752
0.19934 0.09793 0.17814
0.25414 0.09913 0.17880
0.31203 0.10041 0.17949
0.37224 0.10175 0.18019
0.43401 0.10314 0.18090
0.49657 0.10456 0.18161
0.55915 0.10600 0.18231
0.62099 0.10743 0.18299
0.68132 0.10883 0.18365
0.73936 0.11019 0.18428
0.79435 0.11149 0.18487
0.84551 0.11271 0.18542
0.89207 0.11382 0.18591
